public/svg/flutter.svg

<svg xmlns="http://www.w3.org/2000/svg" xmlns:xlink="http://www.w3.org/1999/xlink" width="44" height="44"
  viewBox="0 0 44 44" fill="none">
  <g clip-path="url(#clip0)">
    <rect x="9.89282" y="18.0063" width="31.3277" height="24.4208" fill="url(#pattern0)" />
    <path d="M37.0631 20.0376H23.7056L12.0195 31.7265L18.6969 38.4038L37.0631 20.0376Z" fill="#54C5F8" />
    <path d="M8.68014 28.3864L2 21.7063L23.7063 0H37.0638L8.68014 28.3864Z" fill="#54C5F8" />
    <path d="M18.6975 38.4039L23.7062 43.4126H37.0637L25.3749 31.7266L18.6975 38.4039Z" fill="#01579B" />
    <path d="M18.6975 38.4039L28.6035 34.9747L25.3749 31.7266L18.6975 38.4039Z" fill="url(#paint0_linear)" />
    <path d="M18.6966 25.0456L12.019 31.7231L18.6966 38.4007L25.3741 31.7231L18.6966 25.0456Z" fill="#29B6F6" />
    <path
      d="M37.0638 20.0376L25.3777 31.7237L37.0638 43.4126H23.7063L18.6976 38.4039L12.0174 31.7237L23.7063 20.0376H37.0638ZM23.7063 0L2 21.7063L8.68014 28.3864L37.0638 0H23.7063Z"
      fill="url(#paint1_radial)" />
  </g>
  <defs>
    <pattern id="pattern0" patternContentUnits="objectBoundingBox" width="1" height="1">
      <use xlink:href="#image0" />
    </pattern>
    <linearGradient id="paint0_linear" x1="20.6447" y1="39.6934" x2="25.6192" y2="34.7189"
      gradientUnits="userSpaceOnUse">
      <stop stop-color="#1A237E" stop-opacity="0.4" />
      <stop offset="1" stop-color="#1A237E" stop-opacity="0" />
    </linearGradient>
    <radialGradient id="paint1_radial" cx="0" cy="0" r="1" gradientUnits="userSpaceOnUse"
      gradientTransform="translate(2.98664 2.95995) scale(53.1128)">
      <stop stop-color="white" stop-opacity="0.1" />
      <stop offset="1" stop-color="white" stop-opacity="0" />
    </radialGradient>
    <clipPath id="clip0">
      <rect width="156" height="43.641" fill="white" />
    </clipPath>
    <image id="image0"
      xlink:href="data:image/png;base64,iVBORw0KGgoAAAANSUhEUgAAAIAAAABkCAYAAABO6zhfAAAACXBIWXMAAAx0AAAMdAH/P3aRAAAA" />
  </defs>
</svg>

<svg xmlns="http://www.w3.org/2000/svg" xmlns:xlink="http://www.w3.org/1999/xlink" width="44" height="44" viewBox="0 0 44 44" fill="none"><g clip-path="url(#a)"><path fill="url(#b)" d="M9.893 18.006h31.328v24.421H9.893z"/><path d="M37.063 20.038H23.706L12.02 31.727l6.677 6.677 18.366-18.366zM8.68 28.386 2 21.706 23.706 0h13.358L8.68 28.386z" fill="#54C5F8"/><path d="m18.698 38.404 5.008 5.009h13.358l-11.69-11.686-6.676 6.677z" fill="#01579B"/><path d="m18.698 38.404 9.905-3.43-3.228-3.247-6.677 6.677z" fill="url(#c)"/><path d="m18.697 25.046-6.678 6.677 6.678 6.678 6.677-6.678-6.677-6.677z" fill="#29B6F6"/><path d="M37.064 20.038 25.378 31.724l11.686 11.689H23.706l-5.008-5.01-6.68-6.68 11.688-11.685h13.358zM23.706 0 2 21.706l6.68 6.68L37.064 0H23.706z" fill="url(#d)"/></g><defs><radialGradient id="d" cx="0" cy="0" r="1" gradientUnits="userSpaceOnUse" gradientTransform="translate(2.987 2.96) scale(53.1128)"><stop stop-color="#fff" stop-opacity=".1"/><stop offset="1" stop-color="#fff" stop-opacity="0"/></radialGradient><linearGradient id="c" x1="20.645" y1="39.693" x2="25.619" y2="34.719" gradientUnits="userSpaceOnUse"><stop stop-color="#1A237E" stop-opacity=".4"/><stop offset="1" stop-color="#1A237E" stop-opacity="0"/></linearGradient><clipPath id="a"><path fill="#fff" d="M0 0h156v43.641H0z"/></clipPath><pattern id="b" patternContentUnits="objectBoundingBox" width="1" height="1"><use xlink:href="#e"/></pattern><image id="e" xlink:href="data:image/png;base64,iVBORw0KGgoAAAANSUhEUgAAAIAAAABkCAYAAABO6zhfAAAACXBIWXMAAAx0AAAMdAH/P3aRAAAA"/></defs></svg>
